!!!COM: Bach, Johann Sebastian
!!!CDT: 1685/3//-1750/7/28/
!!!OTL@@DE: Dank sei Gott in der Höhe
!!!OTL@EN:  Thanks be to God in the highest
!!!AGN: 4-Part Chorale
!!!SCT: BH 311
!!!SCT: BWV 287
**harm	**root	**kern	**kern	**kern	**kern
!	!	!bass	!tenor	!alto	!soprno
*	*Iorgan	*Iorgan	*Iorgan	*Iorgan	*Iorgan
*	*	*clefF4	*clefF4	*clefG2	*clefG2
*M4/4	*M4/4	*M4/4	*M4/4	*M4/4	*M4/4
*met(c)	*met(c)	*met(c)	*met(c)	*met(c)	*met(c)
*MM60	*MM60	*MM60	*MM60	*MM60	*MM60
*k[f#]	*k[f#]	*k[f#]	*k[f#]	*k[f#]	*k[f#]
*>[A,A,B]	*>[A,A,B]	*>[A,A,B]	*>[A,A,B]	*>[A,A,B]	*>[A,A,B]
*>A	*>A	*>A	*>A	*>A	*>A
*G:	*G:	*G:	*G:	*G:	*G:
Vb	4CC	4F#	4d	4a	4dd
=1	=1	=1	=1	=1	=1
I	4FF	8G	4d	8g	4b
.	.	8F	.	8a	.
viiob/IV	4AA	8E	4f	4b	4dd
.	.	8D	.	.	.
IV	4BB-	4C	4g	8cc	4ee
.	.	.	.	8b	.
V	4CC	4D	4f#	8a	4dd
.	.	.	.	8b	.
=2	=2	=2	=2	=2	=2
IVb	4BB-	4E	4g	8cc	2cc
.	.	.	.	8b	.
V7b	4CC	4F#	4d	4a	.
I;	4FF;	4G;	4d;	4g;	4b;
I	4FF	4G	4d	4g	4b
=3	=3	=3	=3	=3	=3
V7d	4CC	8c	4d	4f#	4a
.	.	8B	.	.	.
I	4FF	8A	4d	4g	4b
.	.	8G	.	.	.
V7	2CC	4d	8d	4g	4a
.	.	.	16c	.	.
.	.	.	16B	.	.
.	.	4D	4c	4f#	4a
=4	=4	=4	=4	=4	=4
I;	2.FF;	2.G;	2.B;	2.d;	2.g;
=:|!	=:|!	=:|!	=:|!	=:|!	=:|!
*>B	*>B	*>B	*>B	*>B	*>B
Vb	4CC	8F#	4A	8d	4a
.	.	8E	.	8e	.
=5	=5	=5	=5	=5	=5
V	4CC	8D	4d	4f#	4a
.	.	8d	.	.	.
I	4FF	8c	4G	4d	4b
.	.	8B	.	.	.
ii	4GG	8A	8c	4e	4cc
.	.	8G	8B	.	.
Vb	4CC	4F#	4A	4d	8dd
.	.	.	.	.	8cc
=6	=6	=6	=6	=6	=6
I	4.FF	4G	8B	4.d	2b
.	.	.	8A	.	.
.	.	8BB	4G	.	.
IV7	8BB-	8C	.	8e	.
V;	4CC;	4D;	4d;	4f#;	4a;
*D:	*D:	*D:	*D:	*D:	*D:
I	4CC	4D	4d	4f#	4a
!!linebreak: 2
=7	=7	=7	=7	=7	=7
IV	8FF	8G	8d	4g	8b
viiob	8BB	8F#	8e	.	8cc#
I	4CC	8E	4f#	4a	4dd
.	.	8D	.	.	.
ii	4DD	4G	4.e	4b	8ee
.	.	.	.	.	8dd
V7	4GG	4A	.	4a	4cc#
.	.	.	16f#	.	.
.	.	.	16g	.	.
=8	=8	=8	=8	=8	=8
I;	2.CC;	2.D;	2.f#;	2.a;	2.dd;
*G:	*G:	*G:	*G:	*G:	*G:
V	4CC	4D	4A	4f#	4dd
=9	=9	=9	=9	=9	=9
I	4FF	8G	4B	4d	4b
.	.	4F	.	.	.
V7d/IV	4FF	.	4B	4g	4dd
.	.	16E	.	.	.
.	.	16D	.	.	.
IV	4BB-	8C	4c	4g	4ee
.	.	8B	.	.	.
viio7/II	4FF#	8A	4B	4f	4dd
.	.	8G#	.	.	.
=10	=10	=10	=10	=10	=10
ii	2GG	8A	8c	4.e	2cc
.	.	8B	8d	.	.
.	.	8c	4e	.	.
.	.	8d	.	8f#	.
V/II;	4DD;	4e;	4e;	4g#;	4b;
vi	4DD	8e	4g	4e	4b
.	.	8d	.	.	.
=11	=11	=11	=11	=11	=11
V7d	4CC	8c	4d	4f#	4a
.	.	8B	.	.	.
I	4FF	8A	4d	4g	4b
.	.	8G	.	.	.
V7	2CC	4d	8d	4g	4a
.	.	.	16c	.	.
.	.	.	16B	.	.
.	.	4D	4c	4f#	4a
=12	=12	=12	=12	=12	=12
I;	2.FF;	2.G;	2.B;	2.d;	2.g;
==|!	==|!	==|!	==|!	==|!	==|!
*-	*-	*-	*-	*-	*-
!!chor2scor: -l 2 -s 0.6 -o %b.pmx
!!!YEC: Copyright 2003 by Craig Stuart Sapp
!!!license: GNU General Public License (http://www.gnu.org/copyleft/gpl.html)
!!!SMA: 371 Bach Chorales, edited by Ludwig Erk, C.F. Peters
!!!PDT: 1850, 1865
!!!ONB: Harmony and Root analysis done manually by Craig Sapp
